X:1
T:Nearer, My God, to Thee
T:Nearer, My God, to Thee
T:Arranged by Heidi-Jeanne Thibault
T:Lowell Mason
T:©Copyright 2012 SLS Studios Publishing (ASCAP)
C:Lowell Mason
Z:©Copyright 2012 SLS Studios Publishing (ASCAP)
%%score 1 2
L:1/8
M:4/4
K:G
V:1 treble nm="Violon" snm="Vln."
V:2 alto nm="Alto" snm="Alt."
V:1
|: B4 A2 G2 | G3 E E4 | D4 G2 B2 | A6 D2 | B4 A2 G2 | G3 E E4 | D2 G2 F2 A2 | G8 | d4 e2 d2 | %9
 d3 B d4 | d4 e2 d2 | d3 B A4 | B3 c/B/ A2 G2 | G3 E E4 | D2 G2 F2 A2 | G6 z2 | z2 d2 e3 d | %17
 d6 BG/F/ | G4 E2 F2 | G8 | F6 z2 | D2 G2 A2 B2 | c4- cGDC | B,3 C/B,/ A,2 C2 | B,8 :| %25
V:2
|: z8 | z8 | z8 | z4 D2 C2 | B,6 G,2 | C4 C4 | B,4 A,2 C2 | B,6 A,2 | B,4 CDEF | G6 GA | B4 c2 B2 | %11
 B3 G D4 | B,4 C2 B,2 | C4 C2 DC | B,4 A,2 C2 | B,6 G,A, | B,2 D2 E2 D2 | D3 B, D4 | D4 E2 D2 | %19
 D3 B, A,4 | A,6 D,2 | B,4 A,2 G,2 | G,3 E, E,4 | D,2 G,2 F,2 A,2 | G,8 :| %25

